X:1
T:Title
%%score { ( 1 3 ) | ( 2 4 ) }
L:1/8
M:4/4
K:F
V:1 treble nm="Grand Piano"
V:3 treble 
V:2 bass 
V:4 bass 
V:1
 z4 z2[Q:1/4=100] A2 | A4 F2 B2 | A4 [B,EG]2 [A,F]2 | [CA]2 [B,DG]2 F2 E2 | F6 c2 | %5
 [Fd]4 [DB]2 [Fd]2 | [Fc]4 [CFA]2 [A,F]2 | G2 z2 [EB]2 [FA]2 | [EG]6 [Ec]2 | c4 c2 c2 | %10
 [F=B]4 [FB]2 [FB]2 | [FB]4 [EB]2 [EB]2 | E4 z4 | F2 z2 z4 | [CFc]4 [CFA]2 [A,DF]2 | %15
 [G,G]2 A2 [DB]2 E2 |[M:3/4] F6 |] %17
V:2
 z4 z2 [F,CF]2 | [F,CF]4 [F,A,]2 [F,DF]2 | [F,CF]4 C,2 D,2 | A,,2 B,,2 [C,A,C]2 [C,G,C]2 | %4
 [F,A,C]6 [F,A,F]2 | [B,,B,]4 [B,,B,]2 [B,,B,]2 | [F,A,]4 F,2 F,2 | z2 A2 [C,C]2 [C,C]2 | %8
 [C,C]6 [C,B,]2 | [F,A,F]4 [F,A,F]2 [F,A,F]2 | [D,G,]4 [D,G,]2 [D,G,]2 | [C,G,]4 [C,G,]2 [C,G,]2 | %12
 [^C,G,]4 D,2 =C,2 | z2 G2 B,,2 B,,2 | A,,4 A,,2 D,2 | B,,2 [B,,^F,]2 [G,,G,]2 [C,B,C]2 | %16
[M:3/4] [F,A,C]6 |] %17
V:3
 x8 | x8 | x8 | x8 | x8 | x8 | x8 | [CE]4 z4 | x8 | x8 | x8 | x8 | A4- [F,DA]2 [A,_EF]2 | %13
 [B,D]4 [DFA]2 [DFB]2 | x8 | D4 z4 |[M:3/4] x6 |] %17
V:4
 x8 | x8 | x8 | x8 | x8 | x8 | x8 | C,4 z4 | x8 | x8 | x8 | x8 | x8 | B,,4 z4 | x8 | x8 | %16
[M:3/4] x6 |] %17

